X: 9
T:Old Woman Tossed Up, Ferris
M:6/8
L:1/8
Q:1/4=100
A:Bidford
P:A2B6A2
K:F
P:A
|:C|FGA Bcd|ceB AGF|BAB GcB|AFF F2:|
P:B
f|def def|dgf edc|cAc cAc|dcB A2G|
FGA Bcd|ceB AGF|BAB GcB|AFF F2||
